X: 5
T: The Rambler
R: jig
M: 6/8
L: 1/8
K: Gmaj
GEG G2 c | AGE G2 g | age cde | dec dcA |GEG G2 c | AGE G2 g | age cde | dcB c2 :|geg ceg | c'aa ac'a | g3 age | d^cd GB/c/d |gee ceg | c'2 a ac'a | ge/f/g age | dcB c2 :|DED D2 G | ~E3 D2 d | edB GAB | ~A3 AGE |DED D2 G | ~E3 D2 d | edB GAB | AGF G2 :|dBA GBd | ~g3 ege | ded edB | ~A3 ABc |dBA GBd | ~g3 age | dBd edB | AGF G2 :|


Tune 510	Setting 26377

